Educa/src/img/card01.svg

<svg width="137" height="61" viewBox="0 0 137 61" fill="none" xmlns="http://www.w3.org/2000/svg">
<rect width="137" height="61" rx="15.6089" fill="white"/>
<rect x="12.5615" y="10.4329" width="38.7318" height="39.4413" rx="13.6899" stroke="#F2F2F2"/>
<g clip-path="url(#clip0_103_451)">
<path d="M40.6614 26.1064C40.4509 25.9762 40.1878 25.9644 39.9664 26.075L35.2857 28.4157V26.7143C35.2857 25.5308 34.3263 24.5714 33.1428 24.5714H23.1429C21.9594 24.5714 21 25.5308 21 26.7143V35.2857C21 36.4692 21.9594 37.4285 23.1429 37.4285H33.1428C34.3263 37.4285 35.2857 36.4692 35.2857 35.2857V33.5843L39.9664 35.9285C40.3193 36.1049 40.7483 35.9618 40.9247 35.6089C40.9748 35.5086 41.0006 35.3978 41 35.2857V26.7143C41.0001 26.4667 40.872 26.2367 40.6614 26.1064ZM33.8571 35.2857C33.8571 35.6802 33.5373 36 33.1428 36H23.1429C22.7484 36 22.4286 35.6802 22.4286 35.2857V26.7143C22.4286 26.3198 22.7484 26 23.1429 26H33.1428C33.5373 26 33.8571 26.3198 33.8571 26.7143V35.2857ZM39.5714 34.13L35.2857 31.9872V30.0129L39.5714 27.87V34.13Z" fill="#FF5600"/>
<path d="M28.1429 28.1429C26.5649 28.1429 25.2857 29.4221 25.2857 31C25.2857 32.578 26.5649 33.8572 28.1429 33.8572C29.7208 33.8572 31 32.578 31 31C31 29.4221 29.7208 28.1429 28.1429 28.1429ZM28.1429 32.4286C27.3539 32.4286 26.7143 31.789 26.7143 31C26.7143 30.2111 27.3539 29.5715 28.1429 29.5715C28.9318 29.5715 29.5714 30.2111 29.5714 31C29.5714 31.789 28.9318 32.4286 28.1429 32.4286Z" fill="#FF5600"/>
</g>
<path d="M67.6543 32.4188H64.1623L63.5623 34.1228H62.1343L65.1223 25.7708H66.7063L69.6943 34.1228H68.2543L67.6543 32.4188ZM67.2703 31.3028L65.9143 27.4268L64.5463 31.3028H67.2703ZM72.3615 25.2428V34.1228H70.9935V25.2428H72.3615ZM75.5256 25.2428V34.1228H74.1576V25.2428H75.5256ZM79.9828 29.9348C79.9828 29.1188 80.1708 28.3868 80.5468 27.7388C80.9308 27.0908 81.4468 26.5868 82.0948 26.2268C82.7508 25.8588 83.4668 25.6748 84.2428 25.6748C85.1308 25.6748 85.9188 25.8948 86.6068 26.3348C87.3028 26.7668 87.8068 27.3828 88.1188 28.1828H86.4748C86.2588 27.7428 85.9588 27.4148 85.5748 27.1988C85.1908 26.9828 84.7468 26.8748 84.2428 26.8748C83.6908 26.8748 83.1988 26.9988 82.7668 27.2468C82.3348 27.4948 81.9948 27.8508 81.7468 28.3148C81.5068 28.7788 81.3868 29.3188 81.3868 29.9348C81.3868 30.5508 81.5068 31.0908 81.7468 31.5548C81.9948 32.0188 82.3348 32.3788 82.7668 32.6348C83.1988 32.8828 83.6908 33.0068 84.2428 33.0068C84.7468 33.0068 85.1908 32.8988 85.5748 32.6828C85.9588 32.4668 86.2588 32.1388 86.4748 31.6988H88.1188C87.8068 32.4988 87.3028 33.1148 86.6068 33.5468C85.9188 33.9788 85.1308 34.1948 84.2428 34.1948C83.4588 34.1948 82.7428 34.0148 82.0948 33.6548C81.4468 33.2868 80.9308 32.7788 80.5468 32.1308C80.1708 31.4828 79.9828 30.7508 79.9828 29.9348ZM92.5881 34.2308C91.9641 34.2308 91.4001 34.0908 90.8961 33.8108C90.3921 33.5228 89.9961 33.1228 89.7081 32.6108C89.4201 32.0908 89.2761 31.4908 89.2761 30.8108C89.2761 30.1388 89.4241 29.5428 89.7201 29.0228C90.0161 28.5028 90.4201 28.1028 90.9321 27.8228C91.4441 27.5428 92.0161 27.4028 92.6481 27.4028C93.2801 27.4028 93.8521 27.5428 94.3641 27.8228C94.8761 28.1028 95.2801 28.5028 95.5761 29.0228C95.8721 29.5428 96.0201 30.1388 96.0201 30.8108C96.0201 31.4828 95.8681 32.0788 95.5641 32.5988C95.2601 33.1188 94.8441 33.5228 94.3161 33.8108C93.7961 34.0908 93.2201 34.2308 92.5881 34.2308ZM92.5881 33.0428C92.9401 33.0428 93.2681 32.9588 93.5721 32.7908C93.8841 32.6228 94.1361 32.3708 94.3281 32.0348C94.5201 31.6988 94.6161 31.2908 94.6161 30.8108C94.6161 30.3308 94.5241 29.9268 94.3401 29.5988C94.1561 29.2628 93.9121 29.0108 93.6081 28.8428C93.3041 28.6748 92.9761 28.5908 92.6241 28.5908C92.2721 28.5908 91.9441 28.6748 91.6401 28.8428C91.3441 29.0108 91.1081 29.2628 90.9321 29.5988C90.7561 29.9268 90.6681 30.3308 90.6681 30.8108C90.6681 31.5228 90.8481 32.0748 91.2081 32.4668C91.5761 32.8508 92.0361 33.0428 92.5881 33.0428ZM103.36 27.5108V34.1228H101.992V33.3428C101.776 33.6148 101.492 33.8308 101.14 33.9908C100.796 34.1428 100.428 34.2188 100.036 34.2188C99.5164 34.2188 99.0484 34.1108 98.6324 33.8948C98.2244 33.6788 97.9004 33.3588 97.6604 32.9348C97.4284 32.5108 97.3124 31.9988 97.3124 31.3988V27.5108H98.6684V31.1948C98.6684 31.7868 98.8164 32.2428 99.1124 32.5628C99.4084 32.8748 99.8124 33.0308 100.324 33.0308C100.836 33.0308 101.24 32.8748 101.536 32.5628C101.84 32.2428 101.992 31.7868 101.992 31.1948V27.5108H103.36ZM106.533 28.4708C106.733 28.1348 106.997 27.8748 107.325 27.6908C107.661 27.4988 108.057 27.4028 108.513 27.4028V28.8188H108.165C107.629 28.8188 107.221 28.9548 106.941 29.2268C106.669 29.4988 106.533 29.9708 106.533 30.6428V34.1228H105.165V27.5108H106.533V28.4708ZM112.171 34.2308C111.651 34.2308 111.183 34.1388 110.767 33.9548C110.359 33.7628 110.035 33.5068 109.795 33.1868C109.555 32.8588 109.427 32.4948 109.411 32.0948H110.827C110.851 32.3748 110.983 32.6108 111.223 32.8028C111.471 32.9868 111.779 33.0788 112.147 33.0788C112.531 33.0788 112.827 33.0068 113.035 32.8628C113.251 32.7108 113.359 32.5188 113.359 32.2868C113.359 32.0388 113.239 31.8548 112.999 31.7348C112.767 31.6148 112.395 31.4828 111.883 31.3388C111.387 31.2028 110.983 31.0708 110.671 30.9428C110.359 30.8148 110.087 30.6188 109.855 30.3548C109.631 30.0908 109.519 29.7428 109.519 29.3108C109.519 28.9588 109.623 28.6388 109.831 28.3508C110.039 28.0548 110.335 27.8228 110.719 27.6548C111.111 27.4868 111.559 27.4028 112.063 27.4028C112.815 27.4028 113.419 27.5948 113.875 27.9788C114.339 28.3548 114.587 28.8708 114.619 29.5268H113.251C113.227 29.2308 113.107 28.9948 112.891 28.8188C112.675 28.6428 112.383 28.5548 112.015 28.5548C111.655 28.5548 111.379 28.6228 111.187 28.7588C110.995 28.8948 110.899 29.0748 110.899 29.2988C110.899 29.4748 110.963 29.6228 111.091 29.7428C111.219 29.8628 111.375 29.9588 111.559 30.0308C111.743 30.0948 112.015 30.1788 112.375 30.2828C112.855 30.4108 113.247 30.5428 113.551 30.6788C113.863 30.8068 114.131 30.9988 114.355 31.2548C114.579 31.5108 114.695 31.8508 114.703 32.2748C114.703 32.6508 114.599 32.9868 114.391 33.2828C114.183 33.5788 113.887 33.8108 113.503 33.9788C113.127 34.1468 112.683 34.2308 112.171 34.2308ZM122.241 30.6548C122.241 30.9028 122.225 31.1268 122.193 31.3268H117.141C117.181 31.8548 117.377 32.2788 117.729 32.5988C118.081 32.9188 118.513 33.0788 119.025 33.0788C119.761 33.0788 120.281 32.7708 120.585 32.1548H122.061C121.861 32.7628 121.497 33.2628 120.969 33.6548C120.449 34.0388 119.801 34.2308 119.025 34.2308C118.393 34.2308 117.825 34.0908 117.321 33.8108C116.825 33.5228 116.433 33.1228 116.145 32.6108C115.865 32.0908 115.725 31.4908 115.725 30.8108C115.725 30.1308 115.861 29.5348 116.133 29.0228C116.413 28.5028 116.801 28.1028 117.297 27.8228C117.801 27.5428 118.377 27.4028 119.025 27.4028C119.649 27.4028 120.205 27.5388 120.693 27.8108C121.181 28.0828 121.561 28.4668 121.833 28.9628C122.105 29.4508 122.241 30.0148 122.241 30.6548ZM120.813 30.2228C120.805 29.7188 120.625 29.3148 120.273 29.0108C119.921 28.7068 119.485 28.5548 118.965 28.5548C118.493 28.5548 118.089 28.7068 117.753 29.0108C117.417 29.3068 117.217 29.7108 117.153 30.2228H120.813ZM125.987 34.2308C125.467 34.2308 124.999 34.1388 124.583 33.9548C124.175 33.7628 123.851 33.5068 123.611 33.1868C123.371 32.8588 123.243 32.4948 123.227 32.0948H124.643C124.667 32.3748 124.799 32.6108 125.039 32.8028C125.287 32.9868 125.595 33.0788 125.963 33.0788C126.347 33.0788 126.643 33.0068 126.851 32.8628C127.067 32.7108 127.175 32.5188 127.175 32.2868C127.175 32.0388 127.055 31.8548 126.815 31.7348C126.583 31.6148 126.211 31.4828 125.699 31.3388C125.203 31.2028 124.799 31.0708 124.487 30.9428C124.175 30.8148 123.903 30.6188 123.671 30.3548C123.447 30.0908 123.335 29.7428 123.335 29.3108C123.335 28.9588 123.439 28.6388 123.647 28.3508C123.855 28.0548 124.151 27.8228 124.535 27.6548C124.927 27.4868 125.375 27.4028 125.879 27.4028C126.631 27.4028 127.235 27.5948 127.691 27.9788C128.155 28.3548 128.403 28.8708 128.435 29.5268H127.067C127.043 29.2308 126.923 28.9948 126.707 28.8188C126.491 28.6428 126.199 28.5548 125.831 28.5548C125.471 28.5548 125.195 28.6228 125.003 28.7588C124.811 28.8948 124.715 29.0748 124.715 29.2988C124.715 29.4748 124.779 29.6228 124.907 29.7428C125.035 29.8628 125.191 29.9588 125.375 30.0308C125.559 30.0948 125.831 30.1788 126.191 30.2828C126.671 30.4108 127.063 30.5428 127.367 30.6788C127.679 30.8068 127.947 30.9988 128.171 31.2548C128.395 31.5108 128.511 31.8508 128.519 32.2748C128.519 32.6508 128.415 32.9868 128.207 33.2828C127.999 33.5788 127.703 33.8108 127.319 33.9788C126.943 34.1468 126.499 34.2308 125.987 34.2308Z" fill="black"/>
<defs>
<clipPath id="clip0_103_451">
<rect width="20" height="20" fill="white" transform="translate(21 21)"/>
</clipPath>
</defs>
</svg>

<svg xmlns="http://www.w3.org/2000/svg" width="137" height="61" fill="none" xmlns:v="https://vecta.io/nano"><rect width="137" height="61" rx="15.609" fill="#fff"/><rect x="12.562" y="10.433" width="38.732" height="39.441" rx="13.69" stroke="#f2f2f2"/><g clip-path="url(#A)" fill="#ff5600"><path d="M40.661 26.106c-.211-.13-.474-.142-.695-.031l-4.681 2.341v-1.701c0-1.184-.959-2.143-2.143-2.143h-10c-1.184 0-2.143.959-2.143 2.143v8.571c0 1.184.959 2.143 2.143 2.143h10c1.184 0 2.143-.959 2.143-2.143v-1.701l4.681 2.344c.353.176.782.033.958-.32a.71.71 0 0 0 .075-.323v-8.571c0-.248-.128-.478-.339-.608zm-6.804 9.179c0 .395-.32.714-.714.714h-10c-.395 0-.714-.32-.714-.714v-8.571c0-.395.32-.714.714-.714h10c.395 0 .714.32.714.714v8.571zm5.714-1.156l-4.286-2.143v-1.974l4.286-2.143v6.26zm-11.428-5.986A2.86 2.86 0 0 0 25.286 31a2.86 2.86 0 0 0 2.857 2.857A2.86 2.86 0 0 0 31 31a2.86 2.86 0 0 0-2.857-2.857zm0 4.286A1.43 1.43 0 0 1 26.714 31a1.43 1.43 0 0 1 1.429-1.428A1.43 1.43 0 0 1 29.571 31a1.43 1.43 0 0 1-1.428 1.429z"/></g><path d="M67.654 32.419h-3.492l-.6 1.704h-1.428l2.988-8.352h1.584l2.988 8.352h-1.44l-.6-1.704zm-.384-1.116l-1.356-3.876-1.368 3.876h2.724zm5.091-6.06v8.88h-1.368v-8.88h1.368zm3.164 0v8.88h-1.368v-8.88h1.368zm4.457 4.692c0-.816.188-1.548.564-2.196a4.07 4.07 0 0 1 1.548-1.512c.656-.368 1.372-.552 2.148-.552.888 0 1.676.22 2.364.66.696.432 1.2 1.048 1.512 1.848h-1.644c-.216-.44-.516-.768-.9-.984s-.828-.324-1.332-.324c-.552 0-1.044.124-1.476.372s-.772.604-1.02 1.068c-.24.464-.36 1.004-.36 1.62s.12 1.156.36 1.62a2.71 2.71 0 0 0 1.02 1.08c.432.248.924.372 1.476.372.504 0 .948-.108 1.332-.324s.684-.544.9-.984h1.644c-.312.8-.816 1.416-1.512 1.848-.688.432-1.476.648-2.364.648-.784 0-1.5-.18-2.148-.54a4.16 4.16 0 0 1-1.548-1.524c-.376-.648-.564-1.38-.564-2.196zm12.605 4.296c-.624 0-1.188-.14-1.692-.42-.504-.288-.9-.688-1.188-1.2-.288-.52-.432-1.12-.432-1.8 0-.672.148-1.268.444-1.788s.7-.92 1.212-1.2 1.084-.42 1.716-.42 1.204.14 1.716.42.916.68 1.212 1.2.444 1.116.444 1.788-.152 1.268-.456 1.788a3.19 3.19 0 0 1-1.248 1.212c-.52.28-1.096.42-1.728.42zm0-1.188a2 2 0 0 0 .984-.252c.312-.168.564-.42.756-.756s.288-.744.288-1.224-.092-.884-.276-1.212c-.184-.336-.428-.588-.732-.756a2 2 0 0 0-.984-.252 2 2 0 0 0-.984.252c-.296.168-.532.42-.708.756-.176.328-.264.732-.264 1.212 0 .712.18 1.264.54 1.656a1.83 1.83 0 0 0 1.38.576zm10.772-5.532v6.612h-1.368v-.78c-.216.272-.5.488-.852.648a2.7 2.7 0 0 1-1.104.228 3 3 0 0 1-1.404-.324c-.408-.216-.732-.536-.972-.96-.232-.424-.348-.936-.348-1.536v-3.888h1.356v3.684c0 .592.148 1.048.444 1.368.296.312.7.468 1.212.468s.916-.156 1.212-.468c.304-.32.456-.776.456-1.368v-3.684h1.368zm3.173.96c.2-.336.464-.596.792-.78.336-.192.732-.288 1.188-.288v1.416h-.348c-.536 0-.944.136-1.224.408-.272.272-.408.744-.408 1.416v3.48h-1.368v-6.612h1.368v.96zm5.638 5.76c-.52 0-.988-.092-1.404-.276-.408-.192-.732-.448-.972-.768-.24-.328-.368-.692-.384-1.092h1.416a.99.99 0 0 0 .396.708c.248.184.556.276.924.276.384 0 .68-.072.888-.216.216-.152.324-.344.324-.576 0-.248-.12-.432-.36-.552-.232-.12-.604-.252-1.116-.396l-1.212-.396c-.312-.128-.584-.324-.816-.588-.224-.264-.336-.612-.336-1.044a1.6 1.6 0 0 1 .312-.96c.208-.296.504-.528.888-.696.392-.168.84-.252 1.344-.252.752 0 1.356.192 1.812.576.464.376.712.892.744 1.548h-1.368c-.024-.296-.144-.532-.36-.708s-.508-.264-.876-.264c-.36 0-.636.068-.828.204a.63.63 0 0 0-.288.54c0 .176.064.324.192.444s.284.216.468.288l.816.252c.48.128.872.26 1.176.396a2.13 2.13 0 0 1 .804.576c.224.256.34.596.348 1.02a1.71 1.71 0 0 1-.312 1.008c-.208.296-.504.528-.888.696-.376.168-.82.252-1.332.252zm10.07-3.576c0 .248-.016.472-.048.672h-5.052c.04.528.236.952.588 1.272s.784.48 1.296.48c.736 0 1.256-.308 1.56-.924h1.476c-.2.608-.564 1.108-1.092 1.5-.52.384-1.168.576-1.944.576-.632 0-1.2-.14-1.704-.42a3.14 3.14 0 0 1-1.176-1.2c-.28-.52-.42-1.12-.42-1.8s.136-1.276.408-1.788c.28-.52.668-.92 1.164-1.2.504-.28 1.08-.42 1.728-.42.624 0 1.18.136 1.668.408s.868.656 1.14 1.152c.272.488.408 1.052.408 1.692zm-1.428-.432c-.008-.504-.188-.908-.54-1.212s-.788-.456-1.308-.456c-.472 0-.876.152-1.212.456-.336.296-.536.7-.6 1.212h3.66zm5.174 4.008c-.52 0-.988-.092-1.404-.276-.408-.192-.732-.448-.972-.768-.24-.328-.368-.692-.384-1.092h1.416a.99.99 0 0 0 .396.708c.248.184.556.276.924.276.384 0 .68-.072.888-.216.216-.152.324-.344.324-.576 0-.248-.12-.432-.36-.552-.232-.12-.604-.252-1.116-.396l-1.212-.396c-.312-.128-.584-.324-.816-.588-.224-.264-.336-.612-.336-1.044a1.6 1.6 0 0 1 .312-.96c.208-.296.504-.528.888-.696.392-.168.84-.252 1.344-.252.752 0 1.356.192 1.812.576.464.376.712.892.744 1.548h-1.368c-.024-.296-.144-.532-.36-.708s-.508-.264-.876-.264c-.36 0-.636.068-.828.204a.63.63 0 0 0-.288.54c0 .176.064.324.192.444s.284.216.468.288l.816.252c.48.128.872.26 1.176.396a2.13 2.13 0 0 1 .804.576c.224.256.34.596.348 1.02a1.71 1.71 0 0 1-.312 1.008c-.208.296-.504.528-.888.696-.376.168-.82.252-1.332.252z" fill="#000"/><defs><clipPath id="A"><path fill="#fff" transform="translate(21 21)" d="M0 0h20v20H0z"/></clipPath></defs></svg>
